X:8165
%17358
T:The Wind That Shakes the Barley
M:C|
R:reel
K:Cmaj
|"C"G2GA GEDC|"Am"A2AG ABcA|"C"G2 GA GEDC|"F"fedc "G7"ABcA|
"C"G2GA GEDE|"Am"CAAG ABcA|"C"G2GA GCEG|"F"fedc "G7"ABcd||
|"C"e2ec "F"f2fd|"C"e2ec "G7"ABcd|"C"e2ce "F"fdef|"C"gedc "G7"ABcd|
"C"e2ec "F"f2fd|"C"e2ec "G7"ABc2|"C"cdef geae|"F"fedc 
